X:1
T:Cuz Teahan's
R:reel
M:4/4
L:1/8
K:A
AF|:~E2EF A2AB|ceec BAFA|~f2ec ABcf|ecBA FAAF|
|~E2EF A2AB|ceec BAFA|~f2ec ABcf|1 ecBc A2AF:|2 ecBc A2Af|]
|:ecef ~a2af|ecBA FAAB|~c2BA ~c2BA|cBBA FAAf|
|ecef ~a2af|ecBA FAAB|~c2BA ~c2BA|1 ceBc A2Af:|2 ceBc A2AF|]